X:266
T:Steirer (64.)
C:traditionell
A:Salzkammergut
S:MIDI erhalten von Christian Amon. Nach einer kopie im besitz von Johann Stoeckl eines manuscriptes. Stoeckl(zitiert von Amon): "diese sammlung wurde 1935 im hause der familie Hohenlohe-Schillingfuerst gefunden. Sie wurde von einem der beiden brueder Steinegger 1866 verfasst. Die originale sind im Ausseer Kammerhofmuseum".
M:3/4
L:1/8
K:G
V:1
{d}d2 fd fd | d2 gb d'b | ac' fd fd | db gd Bg |\
d2 fd fd | d2 gb d'b | ac' fd fd | g4 z2 |*
V:2
{A}A2 cA cA | B2 dg bg | fa dA dA | Bg dB GB |\
A2 dA dA | B2 dg bg | fa dA dA | B4 z2|*
